X: 33
T: Missa La Martinella / Agnus Dei
N: Derived from Mar1009e-Missa_La_Martinella-Agnus.krn
C: Johannes Martini
%%abc-version 2.0
%%abcx-abcm2ps-target-version 5.9.1 (29 Sep 2008)
%%abc-creator hum2abc beta
%%abcx-conversion-date 2019/02/17 07:19:41
%%abc-edited-by Jesse Rodin
%%abc-edited-by Chris Gage 10-21-2014
%%abcx-initial-encoding-date 2014/10/26/
%%humdrum-veritas 3372360425
%%humdrum-veritas-data 1407062028
%%linebreak <none>
%%barnumbers 0
L: 1/4
M: 2/1
Q: 1/2=120
%%staves [1 2 3 4]
V: 1 clef=treble
V: 2 clef=treble-8
V: 3 clef=treble-8
V: 4 clef=bass
K: F
[V:1] G8 | 
[V:2] z8 | 
[V:3] z8 | 
[V:4] z8 | 
[V:1] F4G4 | 
[V:2] z8 | 
[V:3] z8 | 
[V:4] z8 | 
[V:1] B8 | 
[V:2] z8 | 
[V:3] G8 | 
[V:4] z8 | 
[V:1] A4G4- | 
[V:2] z8 | 
[V:3] F4G4 | 
[V:4] z8 | 
[V:1] G2FED4 | 
[V:2] z8 | 
[V:3] B8 | 
[V:4] z8 | 
[V:1] F4G2B2- | 
[V:2] z8 | 
[V:3] A4G4- | 
[V:4] z8 | 
[V:1] B2AGF2A2- | 
[V:2] z8 | 
[V:3] G2FED4 | 
[V:4] z8 | 
[V:1] ABc2B3c | 
[V:2] z8 | 
[V:3] F4G2B2- | 
[V:4] z8 | 
[V:1] d2c3BAG | 
[V:2] z8 | 
[V:3] B2A2F4 | 
[V:4] z8 | 
[V:1] F2E2G3F | 
[V:2] z4G4- | 
[V:3] A4B2d2- | 
[V:4] z8 | 
[V:1] D8 | 
[V:2] G4F4 | 
[V:3] d2B2A4 | 
[V:4] z8 | 
[V:1] z8 | 
[V:2] G4B4- | 
[V:3] G4z4 | 
[V:4] z4G,4- | 
[V:1] D6C2 | 
[V:2] B4A4 | 
[V:3] z8 | 
[V:4] G,4F,4 | 
[V:1] E4D3E | 
[V:2] G6FE | 
[V:3] z8 | 
[V:4] G,4B,4- | 
[V:1] F2G2A4 | 
[V:2] D4F4 | 
[V:3] z8 | 
[V:4] B,4A,4 | 
[V:1] B4G2A2- | 
[V:2] G2B4A2 | 
[V:3] z8 | 
[V:4] G,6F,E, | 
[V:1] A2B2A2c2 | 
[V:2] F4A4 | 
[V:3] z8 | 
[V:4] D,4F,4 | 
[V:1] B2A3GG2- | 
[V:2] B2d3cB2 | 
[V:3] z8 | 
[V:4] G,2D,2F,2G,2 | 
[V:1] G2^F2G2B2 | 
[V:2] A4G2d2- | 
[V:3] z4G4 | 
[V:4] D,4G,,4 | 
[V:1] A4D4- | 
[V:2] dcA2B2AG | 
[V:3] F4G4 | 
[V:4] z4G,,4 | 
[V:1] D4z2d2- | 
[V:2] F4z4 | 
[V:3] A2B2c2A2 | 
[V:4] D,4C,2D,2 | 
[V:1] d2cBA4 | 
[V:2] G4F4 | 
[V:3] d2e3dd2- | 
[V:4] B,,2C,2D,2F,2 | 
[V:1] G4F2G2 | 
[V:2] G4A2B2 | 
[V:3] d2^c2d4 | 
[V:4] E,4D,2G,2 | 
[V:1] A3GFEG2- | 
[V:2] c2A2d2e2- | 
[V:3] z8 | 
[V:4] F,3E,D,2C,2- | 
[V:1] GFEDE4 | 
[V:2] edd4^c2 | 
[V:3] z8 | 
[V:4] C,2D,2A,,4 | 
[V:1] D4z4 | 
[V:2] d4c2A2 | 
[V:3] D4F4 | 
[V:4] B,,4A,,2D,2 | 
[V:1] z8 | 
[V:2] B2G3E^F2 | 
[V:3] G4A4 | 
[V:4] B,,2C,2A,,4 | 
[V:1] [K:clef=treble-8]d4c2A2 | 
[V:2] G2d2e2f2 | 
[V:3] B4A4 | 
[V:4] G,,2G,4F,2 | 
[V:1] B2G3EF2 | 
[V:2] d4z4 | 
[V:3] G2d4c2 | 
[V:4] G,2B,2A,4 | 
[V:1] G2B2A4 | 
[V:2] z8 | 
[V:3] B2AGF2A2 | 
[V:4] G,2G,,2D,4 | 
[V:1] G4z4 | 
[V:2] D4F4 | 
[V:3] B2d2c4 | 
[V:4] G,,2B,,2A,,4 | 
[V:1] [K:clef=treble]D4F4 | 
[V:2] G4A4 | 
[V:3] B4z4 | 
[V:4] G,,4D,4 | 
[V:1] G4A4 | 
[V:2] B4A4 | 
[V:3] z8 | 
[V:4] z2G,3F,F,2 | 
[V:1] B4A4 | 
[V:2] G2d4c2 | 
[V:3] z8 | 
[V:4] G,2G,,3F,,F,,2 | 
[V:1] G2d3cc2- | 
[V:2] B2AGF2A2 | 
[V:3] z8 | 
[V:4] G,,A,,B,,C,D,2F,2 | 
[V:1] cBB4A2 | 
[V:2] B2d2c4 | 
[V:3] z8 | 
[V:4] G,2B,2F,4 | 
[V:1] B4z4 | 
[V:2] B4f4 | 
[V:3] z8 | 
[V:4] B,,3C,D,2B,,2 | 
[V:1] z8 | 
[V:2] f2e3dd2- | 
[V:3] B4B2A2- | 
[V:4] D,2G,3F,D,2 | 
[V:1] z8 | 
[V:2] d2c2d4 | 
[V:3] AGG4^F2 | 
[V:4] E,4D,4 | 
[V:1] z8 | 
[V:2] B4B2A2- | 
[V:3] G4z4 | 
[V:4] G,,6F,,2 | 
[V:1] z8 | 
[V:2] AGG4^F2 | 
[V:3] z8 | 
[V:4] G,,2B,,2A,,4 | 
[V:1] B4B2A2- | 
[V:2] G6F2 | 
[V:3] z8 | 
[V:4] G,,4z2D,2 | 
[V:1] AGG4^F2 | 
[V:2] G2B2A4 | 
[V:3] z8 | 
[V:4] E,2G,2D,4 | 
[V:1] G8 | 
[V:2] G2D2E2D2- | 
[V:3] d4c2B2- | 
[V:4] G,,2B,,2C,2G,,2- | 
[V:1] D8 | 
[V:2] DCDED2F2- | 
[V:3] BAG2F2B2- | 
[V:4] G,,A,,B,,C,D,2C,B,, | 
[V:1] z4d4 | 
[V:2] F2E2F2D2 | 
[V:3] B2A2B4 | 
[V:4] C,4B,,4 | 
[V:1] c2B3AG2 | 
[V:2] F2G2D4 | 
[V:3] c2d4e2 | 
[V:4] A,,2G,,2B,,2C,2 | 
[V:1] F2B4A2 | 
[V:2] d2e2f4 | 
[V:3] d2B2c4 | 
[V:4] D,2G,2F,4 | 
[V:1] B4c2d2 | 
[V:2] d4c2B2- | 
[V:3] B4z4 | 
[V:4] G,2B,2A,2G,2- | 
[V:1] G2B2A2G2- | 
[V:2] BAG2F2B2- | 
[V:3] z8 | 
[V:4] G,F,E,D,F,2B,,2 | 
[V:1] G2FED3E | 
[V:2] B2A2B2A2- | 
[V:3] z8 | 
[V:4] C,4B,,2D,2- | 
[V:1] FGA2B2A2- | 
[V:2] ABcBd2f2 | 
[V:3] F4G2F2 | 
[V:4] D,C,A,,2G,,2D,2 | 
[V:1] AGG4F2 | 
[V:2] _e4d4 | 
[V:3] B2c2A4 | 
[V:4] _E,2C,2D,4 | 
[V:1] G2E3DG2- | 
[V:2] B2c4d2- | 
[V:3] G6B2- | 
[V:4] _E,2C,3B,,G,,2 | 
[V:1] G2F2B4 | 
[V:2] d2d2d3e | 
[V:3] B2A2G4 | 
[V:4] D,4G,,4 | 
[V:1] A8 ||  
[V:2] f8 & [A8d8] ||  
[V:3] F8 ||  
[V:4] D,8 ||  
[V:1]  [K:F] [K:clef=treble][M:2/1]G8 | 
[V:2]  [K:F] [K:clef=treble-8][M:2/1]z8 | 
[V:3]  [K:F] [K:clef=treble-8][M:2/1]z8 | 
[V:4]  [K:F] [K:clef=bass][M:2/1]z8 | 
[V:1] F4G4- | 
[V:2] z8 | 
[V:3] z8 | 
[V:4] z8 | 
[V:1] G2FEDEFG | 
[V:2] G8 | 
[V:3] z8 | 
[V:4] z8 | 
[V:1] A4G2B2- | 
[V:2] F4G4- | 
[V:3] z8 | 
[V:4] z8 | 
[V:1] B2AGF4 | 
[V:2] G2FEDEFG | 
[V:3] z8 | 
[V:4] z8 | 
[V:1] E2F2G2D2- | 
[V:2] A4G2B2- | 
[V:3] z8 | 
[V:4] z8 | 
[V:1] D2CB,A,2C2- | 
[V:2] B2AGF4 | 
[V:3] z8 | 
[V:4] z8 | 
[V:1] CB,A,2G,2F,2 | 
[V:2] E2F2G2D2- | 
[V:3] z8 | 
[V:4] z8 | 
[V:1] B,4A,4 | 
[V:2] D2G4F2 | 
[V:3] z8 | 
[V:4] z8 | 
[V:1] z2D4C2 | 
[V:2] B4A4 | 
[V:3] z8 | 
[V:4] z8 | 
[V:1] F3GABA2- | 
[V:2] d8 | 
[V:3] z8 | 
[V:4] z8 | 
[V:1] A2GFE4 | 
[V:2] c8 | 
[V:3] z8 | 
[V:4] z8 | 
[V:1] D4E2F2 | 
[V:2] z2G4F2 | 
[V:3] z8 | 
[V:4] z8 | 
[V:1] D2G2F2B2- | 
[V:2] B3cd_ed2- | 
[V:3] z8 | 
[V:4] z8 | 
[V:1] B2AG^F4 | 
[V:2] d2cBA4 | 
[V:3] z8 | 
[V:4] z8 | 
[V:1] G4z2G2 | 
[V:2] G4A2B2 | 
[V:3] z8 | 
[V:4] z8 | 
[V:1] G3AB3A | 
[V:2] G2c2B2_e2- | 
[V:3] z8 | 
[V:4] z8 | 
[V:1] G2F2GFED | 
[V:2] e2dcB4 | 
[V:3] z8 | 
[V:4] z8 | 
[V:1] E4D4- | 
[V:2] c2G2G3A | 
[V:3] z8 | 
[V:4] z8 | 
[V:1] D8- | 
[V:2] B3AG2F2 | 
[V:3] z8 | 
[V:4] z8 | 
[V:1] D4^C4 | 
[V:2] GFEDE4 | 
[V:3] z8 | 
[V:4] z8 | 
[V:1] D8- | 
[V:2] D4G4- | 
[V:3] z8 | 
[V:4] z8 | 
[V:1] D4z4 | 
[V:2] G8- | 
[V:3] z8 | 
[V:4] z8 | 
[V:1] G4A4 | 
[V:2] G4F4 | 
[V:3] z8 | 
[V:4] z8 | 
[V:1] G2B3AGF | 
[V:2] G4z4 | 
[V:3] z8 | 
[V:4] z8 | 
[V:1] G4F2B2 | 
[V:2] c4d4 | 
[V:3] z8 | 
[V:4] z8 | 
[V:1] A2c3BB2- | 
[V:2] c2_e3dcB | 
[V:3] z8 | 
[V:4] z8 | 
[V:1] B2A2B4 | 
[V:2] c4B4- | 
[V:3] z8 | 
[V:4] z8 | 
[V:1] z2F3EF2 | 
[V:2] B8 | 
[V:3] z8 | 
[V:4] z8 | 
[V:1] G2A2D2A2 | 
[V:2] z2F3EF2 | 
[V:3] z8 | 
[V:4] z8 | 
[V:1] B2c2d3c | 
[V:2] G2A2D2A2 | 
[V:3] z8 | 
[V:4] z8 | 
[V:1] BAG2B2A2 | 
[V:2] B2c2d3c | 
[V:3] z8 | 
[V:4] z8 | 
[V:1] D2G4^F2 | 
[V:2] BAG2A4 | 
[V:3] z8 | 
[V:4] z8 | 
[V:1] G4z4 | 
[V:2] G4d4 | 
[V:3] z8 | 
[V:4] z2G,,3A,,B,,2 | 
[V:1] z8 | 
[V:2] c2B4AG | 
[V:3] z8 | 
[V:4] C,2D,2E,2F,2- | 
[V:1] z4z2C2 | 
[V:2] F2B4A2 | 
[V:3] z8 | 
[V:4] F,2E,D,C,4 | 
[V:1] D4E4 | 
[V:2] B4z4 | 
[V:3] z8 | 
[V:4] B,,2G,,3A,,B,,C, | 
[V:1] F2E3DD2- | 
[V:2] z4z2F2 | 
[V:3] z8 | 
[V:4] D,2C,2D,3F, | 
[V:1] D2^C2D4 | 
[V:2] G4A4 | 
[V:3] z8 | 
[V:4] E,4D,4 | 
[V:1] z2F2G4 | 
[V:2] B2A3GG2- | 
[V:3] z8 | 
[V:4] B,,2D,2C,2B,,2 | 
[V:1] A4B2A2- | 
[V:2] G2^F2G2=F2 | 
[V:3] z8 | 
[V:4] A,,4G,,2D,2 | 
[V:1] AGG4^F2 | 
[V:2] B2c2A4 | 
[V:3] z8 | 
[V:4] _E,2C,2D,4 | 
[V:1] G8- | 
[V:2] G8 | 
[V:3] z8 | 
[V:4] G,,2C,2B,,2C,2- | 
[V:1] G8 | 
[V:2] z4d4- | 
[V:3] z8 | 
[V:4] C,D,E,F,G,A,B,2 | 
[V:1] z8 | 
[V:2] d2c2B4 | 
[V:3] z8 | 
[V:4] G,2A,3G,G,2- | 
[V:1] z8 | 
[V:2] A4G4 | 
[V:3] z8 | 
[V:4] G,2^F,2G,2C,2- | 
[V:1] z8 | 
[V:2] A2c4=B2 | 
[V:3] z8 | 
[V:4] C,D,E,F,D,4 | 
[V:1] z8 | 
[V:2] c4z4 | 
[V:3] z8 | 
[V:4] z2C,2B,,2C,2- | 
[V:1] z8 | 
[V:2] G4B4 | 
[V:3] z8 | 
[V:4] C,2B,,A,,G,,2G,2 | 
[V:1] z8 | 
[V:2] A2G4FE | 
[V:3] z8 | 
[V:4] F,2B,4A,G, | 
[V:1] z8 | 
[V:2] D3EF2G2 | 
[V:3] z8 | 
[V:4] B,2A,4G,2- | 
[V:1] z8 | 
[V:2] B2A4d2 | 
[V:3] z8 | 
[V:4] G,2F,2D,2F,2 | 
[V:1] z8 | 
[V:2] c2B3AA2- | 
[V:3] z8 | 
[V:4] E,2D,4C,2 | 
[V:1] z8 | 
[V:2] A2G2A4 | 
[V:3] z8 | 
[V:4] B,,4z2F,2- | 
[V:1] z8 | 
[V:2] d8 | 
[V:3] z8 | 
[V:4] F,E,D,C,B,,2B,2- | 
[V:1] z8 | 
[V:2] c4B4- | 
[V:3] z8 | 
[V:4] B,2A,2B,2_E,2- | 
[V:1] z8 | 
[V:2] B2AGA4 | 
[V:3] z8 | 
[V:4] E,D,C,B,,C,4 | 
[V:1] z8 | 
[V:2] B4z2G2- | 
[V:3] z8 | 
[V:4] z2B,,4C,2 | 
[V:1] z8 | 
[V:2] G2F2G2E2 | 
[V:3] z8 | 
[V:4] D,4z2C,2- | 
[V:1] z8 | 
[V:2] A4z2G2- | 
[V:3] z8 | 
[V:4] C,2D,2E,4 | 
[V:1] z8 | 
[V:2] G2F2B4 | 
[V:3] z8 | 
[V:4] z2D,4E,2 | 
[V:1] z8 | 
[V:2] z2A2B2G2 | 
[V:3] z8 | 
[V:4] F,4z2E,2- | 
[V:1] z8 | 
[V:2] c4z2B2 | 
[V:3] z8 | 
[V:4] E,2F,2G,4 | 
[V:1] z8 | 
[V:2] c2A2d4 | 
[V:3] z8 | 
[V:4] z2F,4G,2 | 
[V:1] z8 | 
[V:2] z2c2e2d2- | 
[V:3] z8 | 
[V:4] A,4G,2F,2 | 
[V:1] z8 | 
[V:2] dcBAG2d2- | 
[V:3] z8 | 
[V:4] G,2D,2E,2D,2 | 
[V:1] z8 | 
[V:2] dBc2B2A2- | 
[V:3] z8 | 
[V:4] G,2F,2G,2C,2 | 
[V:1] z8 | 
[V:2] AGG4^F2 | 
[V:3] z8 | 
[V:4] D,2G,,2A,,4 | 
[V:1] G8 ||  
[V:2] G8 ||  
[V:3] z8 ||  
[V:4] G,,8 ||  
[V:1]  [K:F] [K:clef=treble][M:2/1]F8 | 
[V:2]  [K:F] [K:clef=treble-8][M:2/1]d8- | 
[V:3]  [K:F] [K:clef=treble-8][M:2/1]A8 | 
[V:4]  [K:F] [K:clef=bass][M:2/1]D,8 | 
[V:1] D4E4 | 
[V:2] d4c4 | 
[V:3] B4A4- | 
[V:4] B,,4C,4 | 
[V:1] F6ED | 
[V:2] A8- | 
[V:3] A2G2F4 | 
[V:4] D,8 | 
[V:1] C4z4 | 
[V:2] A4D4 | 
[V:3] E2A4G2 | 
[V:4] A,,4B,,4 | 
[V:1] A8 | 
[V:2] E4F4 | 
[V:3] A8 | 
[V:4] A,,4D,4 | 
[V:1] B4A4- | 
[V:2] G2d2_e2d2- | 
[V:3] z8 | 
[V:4] G,,2B,,2C,2D,2 | 
[V:1] A2G2F4 | 
[V:2] d2c2d2A2- | 
[V:3] z8 | 
[V:4] _E,4D,4 | 
[V:1] E2A4G2 | 
[V:2] ABcdB4 | 
[V:3] z8 | 
[V:4] z4D,2E,2 | 
[V:1] A4z4 | 
[V:2] A2c4BA | 
[V:3] z8 | 
[V:4] F,3E,F,2G,2 | 
[V:1] z8 | 
[V:2] G2F2G2B2 | 
[V:3] z8 | 
[V:4] B,2A,3G,G,2- | 
[V:1] z4D4 | 
[V:2] A4G4 | 
[V:3] z8 | 
[V:4] G,2^F,2G,4 | 
[V:1] F3EF2G2 | 
[V:2] z8 | 
[V:3] z4D4 | 
[V:4] F,2A,3G,F,E, | 
[V:1] B2A3GG2- | 
[V:2] z8 | 
[V:3] F3EF2G2 | 
[V:4] D,4B,,2G,,2 | 
[V:1] G2^F2G4 | 
[V:2] z8 | 
[V:3] B2A3GG2- | 
[V:4] D,4E,4 | 
[V:1] A4B4 | 
[V:2] z4D2E2 | 
[V:3] G2^F2G4 | 
[V:4] D,4G,,4 | 
[V:1] A4D4 | 
[V:2] F3EF2G2 | 
[V:3] z8 | 
[V:4] D,3C,D,2G,,2 | 
[V:1] z8 | 
[V:2] B2A3GG2- | 
[V:3] z4d4- | 
[V:4] D,3C,D,2G,,2 | 
[V:1] z4d4- | 
[V:2] G2^F2G4 | 
[V:3] d2c2B4 | 
[V:4] A,,4G,,2G,2- | 
[V:1] d2c2B4 | 
[V:2] z2A2B2d2 | 
[V:3] A4G4 | 
[V:4] G,E,F,2G,2B,2 | 
[V:1] A4G4 | 
[V:2] c2f2e2d2 | 
[V:3] A2c4B2 | 
[V:4] F,4z2G,2 | 
[V:1] A2c4=B2 | 
[V:2] f2e2d4 | 
[V:3] c4z4 | 
[V:4] F,2C,2G,4 | 
[V:1] c4z2G2- | 
[V:2] c2_e4d2- | 
[V:3] G4G2B2- | 
[V:4] C,3B,,C,2G,,2 | 
[V:1] G2A2B2G2- | 
[V:2] dBc2B2c2 | 
[V:3] B2A2G2FE | 
[V:4] G,2F,2G,4 | 
[V:1] GEF2G3F | 
[V:2] d3cBAB2- | 
[V:3] D4z4 | 
[V:4] A,4G,4- | 
[V:1] D4z4 | 
[V:2] B2AGF2d2- | 
[V:3] z2G2A2B2 | 
[V:4] G,2F,E,D,4 | 
[V:1] z2G2A2B2 | 
[V:2] d2cBA2G2 | 
[V:3] G2B2c2d2 | 
[V:4] G,,4z2G,2- | 
[V:1] G2B2c2dc | 
[V:2] d3GA2F2 | 
[V:3] B4A4 | 
[V:4] G,D,G,2F,2D,2 | 
[V:1] BAA4G2 | 
[V:2] B2c2d2B2 | 
[V:3] z8 | 
[V:4] G,2F,2D,2G,2 | 
[V:1] A8z4 | 
[V:2] [M:3/1]A12 | 
[V:3] z12 | 
[V:4] D,8C,4 | 
[V:1] [M:3/1]z12 | 
[V:2] [M:3/1]d8c4 | 
[V:3] [M:3/1]z12 | 
[V:4] [M:3/1]B,,4G,,4A,,4 | 
[V:1] z12 | 
[V:2] B6G2A4 | 
[V:3] d8c4 | 
[V:4] B,,2C,2D,2E,2F,4 | 
[V:1] d8c4 | 
[V:2] B4F4f4 | 
[V:3] B6G2A4 | 
[V:4] B,,8z4 | 
[V:1] B6G2A4 | 
[V:2] d6cBc4 | 
[V:3] B8z4 | 
[V:4] G,4F,6G,2 | 
[V:1] B8z4 | 
[V:2] B4G4F4 | 
[V:3] z12 | 
[V:4] B,8A,4 | 
[V:1] z12 | 
[V:2] G4B4A4 | 
[V:3] z12 | 
[V:4] G,6E,2^F,4 | 
[V:1] z12 | 
[V:2] G6E2^F4 | 
[V:3] z12 | 
[V:4] G,4G,,4A,,4 | 
[V:1] z12 | 
[V:2] G4z4z4 | 
[V:3] G8F4 | 
[V:4] G,,2A,,2B,,2C,2D,4 | 
[V:1] z12 | 
[V:2] z12 | 
[V:3] G4B4A4 | 
[V:4] _E,4D,6C,2 | 
[V:1] z12 | 
[V:2] z12 | 
[V:3] G6E2^F4 | 
[V:4] B,,4A,,8 | 
[V:1] G8F4 | 
[V:2] d8d4 | 
[V:3] G4B4A4 | 
[V:4] G,,8D,4 | 
[V:1] G4B4A4 | 
[V:2] c4f8 | 
[V:3] G4d6c2 | 
[V:4] E,4D,4F,4 | 
[V:1] G4d6c2 | 
[V:2] d8d4 | 
[V:3] B2A2B4G4 | 
[V:4] G,8B,4- | 
[V:1] B2A2B4A3G | 
[V:2] G4d4f4 | 
[V:3] d6B2c4 | 
[V:4] B,4G,4F,4 | 
[V:1] G8^F4 | 
[V:2] e4d8 | 
[V:3] B4A8 | 
[V:4] G,4D,8 | 
[V:1] G12 |]  
[V:2] d12 |]  
[V:3] G12 |]  
[V:4] G,,12 |]  



